components/Company/logos/logo-twitch.svg

<svg height="140" viewBox="0 0 400 140" width="400" xmlns="http://www.w3.org/2000/svg"><g fill="#6441a5" fill-rule="evenodd" transform="matrix(1 0 0 -1 124 117)"><path d="m33.9118166 19.8591549-6.0125211-6.0243849h-9.4446611l-5.152394-5.16205638v5.16205638h-7.72837091v24.9536901h28.33794711zm-31.77405092 22.3711174-1.71717107-6.8840657v-30.97586857h7.7292517v-4.30325822h4.29226709l4.2949095 4.30325822h6.8686843l13.7391303 13.76548357v24.0944507z" transform="translate(92.074546 51.261642)"/><path d="m107.093957 72.8402911h3.434783v10.3272019h-3.434783zm9.445102 0h3.434782v10.3272019h-3.434782z"/><path d="m147.09801 33.0985915-6.009879 6.0217371h-11.164475v7.7450705h-9.447303v-35.2786855h9.447303v18.0705071h7.72705v-18.0705071h9.447304zm-30.054238 6.0217371h-14.597936l-6.0111996-6.0217371v-15.4874929l6.0111996-6.024385h14.597936v9.4639906h-11.164474v8.6065165h11.164474zm-24.0439181 0h-7.7270497v7.7450705h-9.4473036v-29.2543005l6.0111998-6.024385h11.1631535v9.4639906h-7.7270497v8.6065165h7.7270497zm-20.6091358 7.7450705h-9.4446612v-4.3036996h9.4446612zm0-7.7450705h-9.4446612v-27.5331737h9.4446612zm-12.8794437 0h-9.445542v-18.0696244h-3.4339017v18.0696244h-9.4459824v-18.0696244h-3.4334613v18.0696244h-9.4473036v-27.533615h29.1963124l6.0098786 6.024385zm-38.6409736 0h-7.72749v7.7450705h-9.44554197v-29.2543005l6.01075939-6.024385h11.16227258v9.4639906h-7.72749v8.6065165h7.72749zm129.6598492-4.3006103v-25.81292957l-12.879444-8.60519249h-8.586296v4.30369953l-6.010759-4.30369953h-7.72705v4.30369953l-4.292267-4.30369953h-13.7395706l-4.2949095 4.30369953-.8596866-4.30369953h-12.0197571l-4.9154518 4.30369953-.2752582-4.30369953h-13.6241824l-.4818121 4.30369953-3.6880201-4.30369953h-20.8095238l-4.2940288 1.72112676v-1.72112676h-11.1618322l-12.8807649 7.74595306-7.72749004 7.740216v34.4185633h16.31598794l7.7270496-7.7446291h35.206191v7.7446291h29.1949912v-7.7446291h7.7283708v-4.3010516l4.2949096 4.3010516h8.584975l7.729251 7.7446291h16.314667v-7.7446291h9.445982z" transform="translate(.354841 .160771)"/></g></svg>

<?xml version="1.0" encoding="UTF-8"?>
<svg width="400px" height="140px" viewBox="0 0 400 140" version="1.1" xmlns="http://www.w3.org/2000/svg" xmlns:xlink="http://www.w3.org/1999/xlink">
    <title>Artboard</title>
    <g id="Artboard" stroke="none" stroke-width="1" fill="none" fill-rule="evenodd">
        <g id="Twitch_logo" transform="translate(124.000000, 22.000000)" fill="#6441A5">
            <g id="g3363" transform="translate(76.000000, 47.500000) scale(-1, 1) rotate(-180.000000) translate(-76.000000, -47.500000) translate(0.000000, -0.000000)">
                <g id="g3365" transform="translate(92.074546, 51.261642)">
                    <path d="M33.9118166,19.8591549 L27.8992955,13.83477 L18.4546344,13.83477 L13.3022404,8.67271362 L13.3022404,13.83477 L5.57386949,13.83477 L5.57386949,38.7884601 L33.9118166,38.7884601 L33.9118166,19.8591549 Z M2.13776568,42.2302723 L0.420594608,35.3462066 L0.420594608,4.37033803 L8.14984631,4.37033803 L8.14984631,0.0670798122 L12.4421134,0.0670798122 L16.7370229,4.37033803 L23.6057072,4.37033803 L37.3448375,18.1358216 L37.3448375,42.2302723 L2.13776568,42.2302723 Z" id="path3367"></path>
                </g>
                <path d="M107.093957,72.8402911 L110.52874,72.8402911 L110.52874,83.167493 L107.093957,83.167493 L107.093957,72.8402911 Z M116.539059,72.8402911 L119.973841,72.8402911 L119.973841,83.167493 L116.539059,83.167493 L116.539059,72.8402911 Z" id="path3369"></path>
                <g id="g3371" transform="translate(0.354841, 0.160771)">
                    <path d="M147.09801,33.0985915 L141.088131,39.1203286 L129.923656,39.1203286 L129.923656,46.8653991 L120.476353,46.8653991 L120.476353,11.5867136 L129.923656,11.5867136 L129.923656,29.6572207 L137.650706,29.6572207 L137.650706,11.5867136 L147.09801,11.5867136 L147.09801,33.0985915 Z M117.043772,39.1203286 L102.445836,39.1203286 L96.4346364,33.0985915 L96.4346364,17.6110986 L102.445836,11.5867136 L117.043772,11.5867136 L117.043772,21.0507042 L105.879298,21.0507042 L105.879298,29.6572207 L117.043772,29.6572207 L117.043772,39.1203286 L117.043772,39.1203286 Z M92.9998539,39.1203286 L85.2728042,39.1203286 L85.2728042,46.8653991 L75.8255006,46.8653991 L75.8255006,17.6110986 L81.8367004,11.5867136 L92.9998539,11.5867136 L92.9998539,21.0507042 L85.2728042,21.0507042 L85.2728042,29.6572207 L92.9998539,29.6572207 L92.9998539,39.1203286 L92.9998539,39.1203286 Z M72.3907181,46.8653991 L62.9460569,46.8653991 L62.9460569,42.5616995 L72.3907181,42.5616995 L72.3907181,46.8653991 Z M72.3907181,39.1203286 L62.9460569,39.1203286 L62.9460569,11.5871549 L72.3907181,11.5871549 L72.3907181,39.1203286 L72.3907181,39.1203286 Z M59.5112744,39.1203286 L50.0657324,39.1203286 L50.0657324,21.0507042 L46.6318307,21.0507042 L46.6318307,39.1203286 L37.1858483,39.1203286 L37.1858483,21.0507042 L33.752387,21.0507042 L33.752387,39.1203286 L24.3050834,39.1203286 L24.3050834,11.5867136 L53.5013958,11.5867136 L59.5112744,17.6110986 L59.5112744,39.1203286 L59.5112744,39.1203286 Z M20.8703008,39.1203286 L13.1428108,39.1203286 L13.1428108,46.8653991 L3.69726883,46.8653991 L3.69726883,17.6110986 L9.70802822,11.5867136 L20.8703008,11.5867136 L20.8703008,21.0507042 L13.1428108,21.0507042 L13.1428108,29.6572207 L20.8703008,29.6572207 L20.8703008,39.1203286 Z M150.53015,34.8197183 L150.53015,9.00678873 L137.650706,0.401596244 L129.06441,0.401596244 L129.06441,4.70529577 L123.053651,0.401596244 L115.326601,0.401596244 L115.326601,4.70529577 L111.034334,0.401596244 L97.2947634,0.401596244 L92.9998539,4.70529577 L92.1401673,0.401596244 L80.1204102,0.401596244 L75.2049584,4.70529577 L74.9297002,0.401596244 L61.3055178,0.401596244 L60.8237057,4.70529577 L57.1356856,0.401596244 L36.3261618,0.401596244 L32.032133,2.122723 L32.032133,0.401596244 L20.8703008,0.401596244 L7.9895359,8.1475493 L0.262045855,15.8877653 L0.262045855,50.3063286 L16.5780338,50.3063286 L24.3050834,42.5616995 L59.5112744,42.5616995 L59.5112744,50.3063286 L88.7062656,50.3063286 L88.7062656,42.5616995 L96.4346364,42.5616995 L96.4346364,38.2606479 L100.729546,42.5616995 L109.314521,42.5616995 L117.043772,50.3063286 L133.358439,50.3063286 L133.358439,42.5616995 L142.804421,42.5616995 L150.53015,34.8197183 Z" id="path3373"></path>
                </g>
            </g>
        </g>
    </g>
</svg>
